app/images/icons/Group 19.svg

<svg width="38" height="46" viewBox="0 0 38 46" fill="none" xmlns="http://www.w3.org/2000/svg">
<path fill-rule="evenodd" clip-rule="evenodd" d="M7.13611 0.710882C6.30495 0.999621 5.69525 1.63213 5.44424 2.46595C5.37154 2.70756 5.31722 3.25858 5.31722 3.75467V4.62124L3.65296 4.65035C1.74984 4.68364 1.4619 4.76246 0.790423 5.43393C0.0568148 6.16754 -0.122038 7.03535 0.0738567 8.91176C0.410881 12.1407 1.51258 14.6366 3.37727 16.3956C4.34778 17.3111 5.5322 18.0205 6.65112 18.3563C7.01309 18.465 7.07806 18.528 7.30395 18.9897C8.03241 20.4785 9.26823 22.2882 10.4651 23.6187C11.1457 24.3753 12.4443 25.5335 13.4388 26.271C14.3377 26.9376 14.5715 27.177 14.8291 27.6951C15.0309 28.1011 15.0372 28.1861 15.0643 30.8698L15.0921 33.6273L14.4266 33.9562C13.3691 34.4789 12.7137 35.351 12.4977 36.5229L12.3912 37.1011L11.6279 37.1395C10.7099 37.1856 10.1971 37.3898 9.6665 37.9204C8.9218 38.6651 8.91558 38.6993 8.88567 42.2413L8.85922 45.364L9.1224 45.6586L9.38566 45.9532L18.5769 45.9767L27.7682 46L28.0594 45.7398L28.3506 45.4795V42.2991C28.3506 39.2323 28.3438 39.1039 28.1599 38.706C28.055 38.479 27.8013 38.1255 27.5962 37.9204C27.0665 37.3907 26.5524 37.1856 25.6396 37.1397L24.8812 37.1016L24.7707 36.5181C24.5453 35.3302 23.8414 34.4277 22.7308 33.9027L22.1705 33.6378L22.1983 30.8751C22.2254 28.1858 22.2317 28.1012 22.4336 27.6951C22.6911 27.1771 22.9248 26.9376 23.8238 26.2708C26.4049 24.3562 28.431 21.9816 29.8321 19.2289C30.1946 18.5167 30.2355 18.4712 30.614 18.3566C31.7459 18.014 32.9939 17.2626 33.9267 16.3622C35.7766 14.5765 36.8545 12.1148 37.1888 8.91176C37.3847 7.03535 37.2059 6.16754 36.4723 5.43393C35.8015 4.76317 35.5118 4.68364 33.6189 4.65044L31.9637 4.6215L31.929 3.58531C31.9019 2.77333 31.8539 2.45991 31.707 2.13656C31.4684 1.61118 30.8907 1.03211 30.361 0.787217L29.9483 0.59647L18.7645 0.576499C8.33757 0.557859 7.55053 0.566912 7.13611 0.710882ZM29.8797 2.61791L30.1259 2.86413L30.1235 7.54413C30.1208 12.6824 30.1045 12.8917 29.5418 15.0112C29.0774 16.7602 28.1735 18.7803 27.2141 20.2126C26.1037 21.8706 24.4406 23.5946 22.7109 24.8808C21.6331 25.6823 21.2644 26.0726 20.9003 26.7975C20.4392 27.7156 20.4066 28.0268 20.4066 31.5024V34.7221L20.6506 34.9908C20.8391 35.1983 21.0163 35.281 21.4273 35.3537C22.2883 35.506 22.8937 36.0487 23.0285 36.7887L23.0892 37.1215H18.6313H14.1735L14.2341 36.7887C14.3686 36.0505 15.0117 35.4664 15.7916 35.3741C16.1291 35.3341 16.3415 35.2485 16.5376 35.0734L16.8117 34.8285L16.8371 31.5737C16.8646 28.0411 16.8346 27.7377 16.3639 26.8007C15.9982 26.0724 15.6307 25.6831 14.5518 24.8808C12.8211 23.5938 11.1532 21.8645 10.0494 20.2126C9.10713 18.8025 8.17452 16.7208 7.72317 15.0201C7.15794 12.8905 7.14188 12.6846 7.13921 7.5515C7.13691 3.00198 7.14152 2.87354 7.31434 2.68137C7.41198 2.57273 7.57175 2.45095 7.66938 2.41065C7.76702 2.37044 12.7489 2.34515 18.7402 2.35455L29.6337 2.37169L29.8797 2.61791ZM5.31722 8.7914C5.31722 11.9712 5.51347 13.8234 6.03672 15.5834C6.13613 15.9176 6.19995 16.2084 6.17856 16.2298C6.09388 16.3145 4.79611 15.3588 4.32452 14.8644C2.76721 13.2317 1.85866 10.7047 1.82315 7.90743C1.81259 7.07885 1.83283 6.9394 1.98869 6.76525C2.269 6.45202 2.4356 6.42193 3.91924 6.41589L5.31722 6.4103V8.7914ZM35.2056 6.70179C35.4455 6.94278 35.4512 6.97216 35.4395 7.90006C35.4043 10.7045 34.4972 13.2299 32.9382 14.8644C32.4666 15.3588 31.1688 16.3145 31.0841 16.2298C31.0627 16.2084 31.1265 15.9176 31.226 15.5834C31.7495 13.8224 31.9455 11.9713 31.9455 8.78554V6.39858L33.4526 6.42663L34.9598 6.45468L35.2056 6.70179ZM26.3294 39.1871L26.5754 39.433L26.6017 41.8277L26.628 44.2224H18.6313H10.6347L10.661 41.835C10.6857 39.5928 10.6981 39.4356 10.8648 39.2505C10.9624 39.142 11.1222 39.0203 11.2198 38.9798C11.3175 38.9394 14.7016 38.9142 18.7403 38.9237L26.0832 38.9411L26.3294 39.1871ZM14.7603 40.7589C14.4809 40.8718 14.1933 41.2833 14.1933 41.5701C14.1933 41.7241 14.2946 41.9364 14.4521 42.1129L14.711 42.4028L16.7979 42.4295L18.8848 42.4562L19.1777 42.1945C19.421 41.977 19.4706 41.8697 19.4706 41.5596C19.4706 41.2507 19.4209 41.142 19.1826 40.9292L18.8948 40.672L16.9213 40.6775C15.8358 40.6807 14.8634 40.7173 14.7603 40.7589ZM21.8612 40.7589C21.5817 40.8718 21.2942 41.2833 21.2942 41.5701C21.2942 41.9254 21.7021 42.3518 22.103 42.4155C22.3733 42.4584 22.4706 42.4245 22.7223 42.1996C22.9717 41.9768 23.021 41.8712 23.021 41.5596C23.021 41.2507 22.9713 41.142 22.7331 40.9292C22.4415 40.6686 22.201 40.6216 21.8612 40.7589Z" fill="white"/>
<path fill-rule="evenodd" clip-rule="evenodd" d="M18.4623 5.94222C17.9954 6.0727 17.8944 6.21773 17.0264 8.00466C16.54 9.00597 16.1284 9.83882 16.1117 9.8555C16.0951 9.87219 15.2691 10.0012 14.2762 10.1424C13.2833 10.2835 12.3255 10.4404 12.1478 10.4911C11.754 10.6035 11.5389 10.9084 11.5389 11.3548C11.5389 11.6703 11.6266 11.7772 13.041 13.1853L14.5432 14.6806L14.2012 16.6878C13.8962 18.4782 13.8721 18.7258 13.9786 18.9806C14.0443 19.1378 14.1786 19.3094 14.2772 19.3622C14.7043 19.5908 15.0516 19.4783 16.8412 18.5317L18.5926 17.6053L20.3793 18.5317C22.3488 19.5529 22.6453 19.6324 23.0339 19.2438C23.1517 19.1259 23.2711 18.9363 23.2991 18.8222C23.3273 18.7081 23.1971 17.7276 23.0101 16.6431L22.6701 14.6714L24.1532 13.1902C25.1035 12.2411 25.6522 11.6262 25.6804 11.4784C25.7491 11.1192 25.5242 10.69 25.1908 10.5442C25.0294 10.4736 24.1585 10.3121 23.2554 10.1853C22.3522 10.0585 21.5019 9.93255 21.3656 9.90548C21.1447 9.86154 21.0187 9.65757 20.1929 8.00733C19.6839 6.9904 19.2248 6.13208 19.1727 6.09977C19.0011 5.9937 18.5979 5.90432 18.4623 5.94222ZM19.2386 10.1185C19.5569 10.7368 19.9151 11.3102 20.0375 11.3976C20.2188 11.527 22.2387 11.9036 22.8162 11.9157C22.8745 11.9169 22.4529 12.3712 21.8793 12.9253C21.2816 13.5026 20.9915 13.757 20.8866 14.0729C20.7795 14.3954 20.8654 14.7819 21.0139 15.6414C21.1109 16.2028 21.1905 16.7311 21.1908 16.8155C21.1913 16.9373 20.9482 16.8416 20.0078 16.3495C19.3567 16.0089 18.7127 15.7302 18.5764 15.7302C18.4402 15.7302 17.7945 16.0125 17.1416 16.3574C16.4887 16.7024 15.9545 16.9431 15.9545 16.8924C15.9545 16.8417 16.0534 16.2364 16.1743 15.5473C16.3664 14.4517 16.3791 14.259 16.2751 14.0136C16.2097 13.8593 15.749 13.3393 15.2513 12.858C14.7537 12.3767 14.3616 11.9679 14.38 11.9495C14.3983 11.9311 14.9898 11.8326 15.6943 11.7305C16.3988 11.6286 17.061 11.49 17.1657 11.4226C17.2705 11.3553 17.6209 10.7535 17.9445 10.0853C18.2681 9.41708 18.5618 8.89908 18.5973 8.93405C18.6328 8.96911 18.9213 9.50212 19.2386 10.1185Z" fill="#DB3138"/>
<circle cx="22.279" cy="41.6484" r="0.976368" fill="#DB3138"/>
</svg>

<svg width="38" height="46" fill="none" xmlns="http://www.w3.org/2000/svg"><path fill-rule="evenodd" clip-rule="evenodd" d="M7.136.71a2.638 2.638 0 00-1.692 1.756c-.072.242-.127.793-.127 1.289v.866l-1.664.03c-1.903.033-2.191.111-2.863.783-.733.734-.912 1.601-.716 3.478.337 3.229 1.439 5.725 3.303 7.484.97.915 2.155 1.624 3.274 1.96.362.109.427.172.653.634.728 1.489 1.964 3.298 3.161 4.629.68.756 1.98 1.915 2.974 2.652.899.667 1.133.906 1.39 1.424.202.406.208.491.235 3.175l.028 2.757-.665.33c-1.058.522-1.713 1.394-1.93 2.566l-.106.578-.763.038c-.918.047-1.43.25-1.962.781-.744.745-.75.78-.78 4.321l-.027 3.123.263.295.264.294 9.19.024 9.192.023.291-.26.292-.26V42.3c0-3.068-.007-3.196-.191-3.594a3.323 3.323 0 00-.564-.786c-.53-.53-1.044-.734-1.956-.78l-.759-.038-.11-.584c-.226-1.188-.93-2.09-2.04-2.615l-.56-.265.027-2.763c.027-2.69.034-2.774.236-3.18.257-.518.49-.757 1.39-1.424 2.58-1.915 4.607-4.29 6.008-7.042.363-.712.403-.758.782-.872 1.132-.343 2.38-1.094 3.313-1.995 1.85-1.785 2.928-4.247 3.262-7.45.196-1.877.017-2.744-.717-3.478-.67-.67-.96-.75-2.853-.784l-1.655-.029-.035-1.036c-.027-.812-.075-1.125-.222-1.448-.239-.526-.816-1.105-1.346-1.35l-.413-.19-11.183-.02C8.338.556 7.55.566 7.136.71zM29.88 2.619l.246.246-.003 4.68c-.002 5.138-.018 5.348-.581 7.467-.465 1.75-1.369 3.77-2.328 5.202-1.11 1.658-2.773 3.382-4.503 4.668-1.078.801-1.447 1.192-1.81 1.916-.462.919-.494 1.23-.494 4.705v3.22l.244.269c.188.207.365.29.776.363.861.152 1.467.695 1.602 1.435l.06.332h-8.915l.06-.332c.135-.739.778-1.323 1.558-1.415.337-.04.55-.126.746-.3l.274-.245.025-3.255c.028-3.533-.002-3.836-.473-4.773-.366-.729-.733-1.118-1.812-1.92-1.73-1.287-3.399-3.017-4.503-4.668-.942-1.41-1.874-3.492-2.326-5.193-.565-2.13-.581-2.335-.584-7.468-.002-4.55.003-4.678.175-4.87.098-.11.258-.231.355-.271.098-.04 5.08-.066 11.071-.056l10.894.017.246.246zM5.317 8.79c0 3.18.196 5.032.72 6.792.1.335.163.625.142.647-.085.084-1.383-.871-1.854-1.366-1.558-1.632-2.466-4.16-2.502-6.957-.01-.828.01-.968.166-1.142.28-.313.447-.343 1.93-.35l1.398-.005V8.79zM35.206 6.7c.24.242.245.271.233 1.2-.035 2.803-.942 5.329-2.5 6.963-.472.495-1.77 1.45-1.855 1.366-.021-.022.043-.312.142-.647.524-1.76.72-3.612.72-6.797V6.399l1.507.028 1.507.028.246.247zm-8.877 32.486l.246.246.027 2.395.026 2.394H10.635l.026-2.387c.025-2.242.037-2.4.204-2.584.097-.109.257-.23.355-.271.098-.04 3.482-.066 7.52-.056l7.343.017.246.246zM14.76 40.76c-.28.113-.567.524-.567.811 0 .154.102.366.26.543l.258.29 2.087.026 2.087.027.293-.262c.243-.217.293-.324.293-.634s-.05-.418-.288-.63l-.288-.258-1.974.006c-1.085.003-2.058.04-2.16.08zm7.101 0c-.28.113-.567.524-.567.811 0 .355.408.782.809.846.27.042.368.009.62-.216.249-.223.298-.329.298-.64 0-.31-.05-.418-.288-.63-.291-.261-.532-.308-.872-.171z" fill="#fff"/><path fill-rule="evenodd" clip-rule="evenodd" d="M18.462 5.942c-.467.13-.568.276-1.436 2.063a78.997 78.997 0 01-.914 1.85c-.017.017-.843.146-1.836.287-.993.142-1.95.298-2.128.35-.394.111-.61.416-.61.863 0 .315.089.422 1.503 1.83l1.502 1.496-.342 2.007c-.305 1.79-.329 2.038-.222 2.293.065.157.2.328.298.381.427.229.775.116 2.564-.83l1.752-.927 1.786.927c1.97 1.02 2.266 1.1 2.655.712.118-.118.237-.308.265-.422.028-.114-.102-1.094-.289-2.179l-.34-1.972 1.483-1.48c.95-.95 1.5-1.565 1.527-1.713.07-.359-.156-.788-.49-.934-.16-.07-1.032-.232-1.935-.359a80.768 80.768 0 01-1.89-.28c-.22-.043-.346-.247-1.172-1.898-.51-1.017-.968-1.875-1.02-1.907-.172-.106-.575-.196-.71-.158zm.777 4.176c.318.619.676 1.192.799 1.28.18.129 2.2.506 2.778.518.059 0-.363.455-.937 1.01-.597.577-.888.831-.992 1.147-.108.322-.022.709.127 1.568.097.562.177 1.09.177 1.175 0 .121-.243.026-1.183-.466-.651-.341-1.295-.62-1.432-.62-.136 0-.782.282-1.434.627-.653.345-1.188.586-1.188.535 0-.05.1-.656.22-1.345.192-1.095.205-1.288.101-1.533-.065-.155-.526-.675-1.024-1.156-.497-.481-.89-.89-.871-.909.018-.018.61-.116 1.314-.219.705-.101 1.367-.24 1.472-.307.104-.068.455-.67.779-1.338.323-.668.617-1.186.652-1.151.036.035.324.568.642 1.184z" fill="#DB3138"/><circle cx="22.279" cy="41.648" r=".976" fill="#DB3138"/></svg>
